X:1
T:Harry the Tailor
M:6/8
L:1/8
K:C
 G| ECE GEG| AFA G2 G/2G/2| cBc Adc| BAB c2 c| Bcd dBG| dBG G2 G| GAB cGE|\
 FDD F2 E/2F/2| G3/2 G/2 G EDC| A3/2 A/2 A F3/2 E/2 D| E3/2 F/2 G Adc|\
 B3/2 A/2 B c2||
